Assets/Icons/interaction/pause-circle.svg

<svg enable-background="new 0 0 60 60" viewBox="0 0 60 60" xmlns="http://www.w3.org/2000/svg"><path d="m25 16c-1.38 0-2.5 1.12-2.5 2.5v24.94c0 .28.22.5.5.5h2c.28 0 .5-.22.5-.5v-26.94c0-.28-.22-.5-.5-.5z"/><path d="m37 16c-1.38 0-2.5 1.12-2.5 2.5v24.94c0 .28.22.5.5.5h2c.28 0 .5-.22.5-.5v-26.94c0-.28-.22-.5-.5-.5z"/><path d="m30 1.5c-15.71 0-28.5 12.79-28.5 28.5s12.79 28.5 28.5 28.5 28.5-12.79 28.5-28.5-12.79-28.5-28.5-28.5zm0 54c-14.06 0-25.5-11.44-25.5-25.5s11.44-25.5 25.5-25.5 25.5 11.44 25.5 25.5-11.44 25.5-25.5 25.5z"/></svg>

<?xml version="1.0" encoding="utf-8"?>
<!-- Generator: Adobe Illustrator 21.1.0, SVG Export Plug-In . SVG Version: 6.00 Build 0)  -->
<svg version="1.1" id="eps" xmlns="http://www.w3.org/2000/svg" xmlns:xlink="http://www.w3.org/1999/xlink" x="0px" y="0px"
	 viewBox="0 0 60 60" style="enable-background:new 0 0 60 60;" xml:space="preserve">
<g>
	<path d="M25,16c-1.38,0-2.5,1.12-2.5,2.5v24.94c0,0.28,0.22,0.5,0.5,0.5h2c0.28,0,0.5-0.22,0.5-0.5V16.5C25.5,16.22,25.28,16,25,16
		z"/>
	<path d="M37,16c-1.38,0-2.5,1.12-2.5,2.5v24.94c0,0.28,0.22,0.5,0.5,0.5h2c0.28,0,0.5-0.22,0.5-0.5V16.5C37.5,16.22,37.28,16,37,16
		z"/>
	<path d="M30,1.5C14.29,1.5,1.5,14.29,1.5,30S14.29,58.5,30,58.5S58.5,45.71,58.5,30S45.71,1.5,30,1.5z M30,55.5
		C15.94,55.5,4.5,44.06,4.5,30S15.94,4.5,30,4.5S55.5,15.94,55.5,30S44.06,55.5,30,55.5z"/>
</g>
</svg>
